apps/site/public/icons/companies/remix-light.svg

<svg xmlns="http://www.w3.org/2000/svg" width="200" height="200" viewBox="0 0 800 800"><path fill="#fff" stroke="#fff" stroke-width="4" d="m589.94 527.613-.001-.018-.002-.018c-2.662-27.764-11.246-48.9-25.534-64.343-12.347-13.346-28.818-22.294-49.031-27.668C569.234 424.272 608 379.587 608 313.42c0-46.717-15.403-84.928-46.495-111.423C530.461 175.543 484.047 161 422.456 161H193v100.41h206.889c26.834 0 46.64 5.764 59.697 15.991 12.982 10.169 19.544 24.946 19.544 43.61 0 21.361-6.599 35.679-19.465 44.774-13.023 9.206-32.816 13.324-59.776 13.324H193v102.525h200.871c21.345 0 37.272 3.018 48.362 12.318 11.045 9.262 17.734 25.143 19.6 52.005l.001.008v.007c2.839 36.892 2.483 55.139 2.141 72.661v.025c-.11 5.645-.219 11.232-.219 17.342v2h130.445v-2c0-27.995 0-53.669-4.261-108.387Z" class="fill-white"/><path fill="#fff" stroke="#fff" stroke-width="4" d="M193 636v2h164.878v-49.006c0-5.207-1.269-12.288-5.612-18.12-4.419-5.933-11.838-10.321-23.569-10.321H193z" class="fill-white"/></svg>

<svg xmlns:xlink="http://www.w3.org/1999/xlink" width="200" height="200" viewBox="0 0 800 800" xmlns="http://www.w3.org/2000/svg"><path d="M589.94 527.613L589.939 527.595L589.937 527.577C587.275 499.813 578.691 478.677 564.403 463.234C552.056 449.888 535.585 440.94 515.372 435.566C569.234 424.272 608 379.587 608 313.42C608 266.703 592.597 228.492 561.505 201.997C530.461 175.543 484.047 161 422.456 161H195H193V163V259.41V261.41H195H399.889C426.723 261.41 446.529 267.174 459.586 277.401C472.568 287.57 479.13 302.347 479.13 321.011C479.13 342.372 472.531 356.69 459.665 365.785C446.642 374.991 426.849 379.109 399.889 379.109H195H193V381.109V479.634V481.634H195H355.883H393.871C415.216 481.634 431.143 484.652 442.233 493.952C453.278 503.214 459.967 519.095 461.833 545.957L461.834 545.965L461.834 545.972C464.673 582.864 464.317 601.111 463.975 618.633L463.975 618.648L463.975 618.658C463.865 624.303 463.756 629.89 463.756 636V638H465.756H592.201H594.201V636C594.201 608.005 594.201 582.331 589.94 527.613Z" stroke="#FFFFFF" stroke-width="4px" class="fill-white" fill="#FFFFFF"></path><path d="M193 636V638H195H355.878H357.878V636V588.994C357.878 583.787 356.609 576.706 352.266 570.874C347.847 564.941 340.428 560.553 328.697 560.553H195H193V562.553V636Z" stroke="#FFFFFF" stroke-width="4px" class="fill-white" fill="#FFFFFF"></path></svg>
